X:1
T:Donna t'inganni
T:Benedetto Ferrari
T:Source : Musiche Varie  a voce sola---Libro secondo---Venetia---B.Vincenti---1637. Editor : André Vierendeels (07/01/17).
T:Notes : Original clefs : C1, F4 Original note values have been halved in 3-beat measures Figures in BC are notated in original print
T:Donna t'inganni
T:©
T:©
T:©
T:©
T:©
C:Benedetto Ferrari
Z:©
%%score 1 2
L:1/8
Q:1/4=102
M:4/4
K:F
V:1 treble nm="Soprano" snm="S"
V:2 bass nm="MusicXML Part"
V:1
 z2 d4 BA | A B2 G z ^F/F/ F>G | A2 G4 G2 | z BBB B3 A | A/B/ c2 c z c/B/ BB/A/ | AA- G4 GA | %6
w: Don- na t'in-|gan- * ni se mi cre- di'a-|man- * te,|ch'all' al- trui spe- se'ap-|pre- * * si quan- to co- sta l'a-|mar Don- * na'in- co-|
w: So ben io|che fia Don- na, e tan- to|ba- * sti,|al gio- var, _ al|scher- * ni- re hà pai che vo- gli'e|de- si- * de- ti|
w: Nel giar- di-|no d'un vol- to ci- o, che|na- * sche|tutt' e spin, ne con-|vi- * * ri del cru- d'a- mor po-|co di buon si pa-|
 A2 G6 | F8 | A=B/^c/ dc d c2 c/c/ | c =B3 AAAA | DDGG TG3 F | F2 z E E4 | Dddd GGcc | %13
w: stan- *|te,|s'es- ser de co- ri sai nu- me bu|giar- * do an- ch'io so|fin- ger un so- spi- *|ro e'un guar-|do, an- h'io so fin- ger un so-|
w: va- *|sti,|ma s'el- la'em- pia'è d'a- mor, io son di|fe- * de, e quan- ti|hà lac- * ci al _|crin, tan- t'a-|le ho al pie- * de, ho al-|
w: |sce,|ma non cu- ro dè fior, a- pe non|so- * no, le vi- van|de d'a- mor ad' al- *|tri lo do-|no, le vi- van- de d'a- mor ad'|
 Tc3 B B2 z A | A8 | G8 ::[M:6/4] z6 DE FG A=B | c4 c2 GA Bc de | f4 f2 _e3 f e2 | _e2 d4 c4 z2 | %20
w: spi- * ro e'un|guar-|do.|Van- * * * * *|* ne, van- * * * * *|* ne mi- se- ra|van- * ne,|
w: pie- * de, al|pie-|de.|||||
w: al- * tri lo|do-|no.|||||
 z6 z2 c2 A2 | B2 TA3 G A2 A2 F2 | G2 TF3 E F4 A2 | =BA B^cdE E4 D2 | D4 d2 ed e^fgA | %25
w: Don- n'ac-|cor- ta non è, Don- n'ac-|cor- ta non è s'al|non _ _ _ _ do cre- de|fè, s'al non _ _ _ _ do|
w: tua sè|tu, io son io, tua sè|tu, io son io tua|se _ _ _ _ tu, io son|mio, tu sè _ _ _ _ tu,|
w: sol s'ap-|pet- ta a un Si- gnor|il pe- ne- trar un|cor _ _ _ _ il pe- ne-|trar, il pe- * * * * ne-|
 A4 G2 !fermata!G6 :| %26
w: cre- de fè.|
w: io son mio.|
w: trar un cor.|
V:2
"^BC" G,,8- | G,,8- | G,,8 | G,8 | E,8 | F,4 B,,4 | C,8 | F,,8 | F,2 E,2 D,4 |"^4#" E,4 A,,4 | %10
"^#" B,,4 A,,4- |"^8 7" A,,2 G,,2 A,,4 | B,,4 _E,4 | D,6 C,2 | D,8 | G,,8 :: %16
[M:6/4] G,,A,, B,,C, D,E, F,6 | A,,B,, C,D, E,^F, G,6 | D,E, F,G, A,=B, C2 F,4 | %19
 G,2 G,,4 C,2 C2 A,2 | B,2 A,3 G, A,2 F,4 | G,2 E,4 F,2 D,4 | E,2 ^C,4 D,2 F,,4 | G,,6 A,,6 | %24
 D,2 B,,4 C,6 | D,6 !fermata!G,,6 :| %26

